packages/core/src/svgs/elf.svg

<svg width="24" height="24" viewBox="0 0 24 24" fill="none" xmlns="http://www.w3.org/2000/svg">
<g clip-path="url(#clip0_31_9803)">
<path d="M0 0H24V24H0V0Z" fill="#2B5EBA"/>
<path d="M12.1333 5.19231C12.9605 5.0016 13.8472 5.72803 13.7756 6.58474C13.8116 7.35831 13.0436 8.03631 12.276 7.93517C12.0909 7.91928 11.9109 7.86569 11.7472 7.77769C11.5835 7.68969 11.4396 7.56914 11.3242 7.42346C11.1666 7.22719 11.0651 6.99189 11.0305 6.74256C10.996 6.49323 11.0296 6.23919 11.1279 6.00746C11.2942 5.59089 11.6987 5.28146 12.1393 5.19231H12.1333ZM6.73632 6.62031C7.26943 6.48487 7.83434 6.56267 8.311 6.83717C8.78765 7.11167 9.13847 7.56124 9.28889 8.09031C9.47318 8.56603 9.69346 9.05417 10.0389 9.44074C10.3123 9.7386 10.7409 9.77417 11.1159 9.79774C11.3657 9.81574 11.6036 9.74417 11.8299 9.65503C12.3536 9.49431 12.9425 9.97046 12.8829 10.5122C12.8829 10.9643 12.4543 11.3449 12.0086 11.3093C11.7107 11.3093 11.4369 11.113 11.2942 10.8572C11.0263 10.4586 10.6813 10.024 10.1696 9.96446C9.70346 9.88455 9.22398 9.96205 8.80675 10.1847C8.53932 10.3095 8.30103 10.5002 8.01561 10.6013C7.67923 10.7299 7.31551 10.77 6.95918 10.718C6.60286 10.6659 6.26584 10.5233 5.98032 10.3039C5.56228 9.97828 5.28361 9.50596 5.20075 8.9826C5.11811 8.48381 5.21971 7.972 5.48661 7.5426C5.77484 7.09125 6.22006 6.76268 6.73632 6.62031ZM15.531 9.11974C15.8963 9.05272 16.2713 9.05835 16.6344 9.13632C16.9975 9.21429 17.3417 9.36306 17.6473 9.57413C17.9529 9.7852 18.2139 10.0544 18.4154 10.3664C18.6169 10.6784 18.7549 11.0271 18.8216 11.3925C18.8987 11.9462 18.8576 12.5235 18.6193 13.0352C18.4523 13.4132 18.2043 13.7501 17.893 14.0219C17.5816 14.2938 17.2144 14.4941 16.8173 14.6086C16.4201 14.7232 16.0027 14.7493 15.5944 14.6851C15.1861 14.6208 14.7968 14.4679 14.454 14.2369C13.9864 13.9231 13.6232 13.4767 13.411 12.9551C13.1987 12.4334 13.1472 11.8603 13.2629 11.3091C13.3786 10.758 13.6564 10.254 14.0605 9.86176C14.4646 9.46953 14.9767 9.20697 15.531 9.10774V9.11974ZM11.8179 12.3803C12.0086 12.3503 12.2105 12.3447 12.3892 12.4403C12.5417 12.5168 12.6682 12.6366 12.7529 12.7848C12.8375 12.9329 12.8765 13.1028 12.8649 13.273C12.8237 13.7372 12.3652 14.1062 11.9015 14.0286C11.4429 13.9275 10.9312 13.8143 10.485 14.0226C10.1968 14.1933 9.94806 14.4232 9.75524 14.6972C9.56242 14.9711 9.42991 15.2828 9.36646 15.6117C9.2962 15.9657 9.13566 16.2956 8.90041 16.5692C8.66516 16.8429 8.36319 17.0512 8.02377 17.1738C7.68435 17.2964 7.319 17.3293 6.96315 17.2691C6.60731 17.209 6.27303 17.0579 5.99275 16.8306C5.70768 16.5999 5.48797 16.2987 5.35546 15.9567C5.17368 15.4807 5.1706 14.9549 5.3468 14.4767C5.523 13.9985 5.86653 13.6005 6.31375 13.3562C6.60406 13.1994 6.92731 13.1133 7.25717 13.1051C7.58703 13.097 7.91415 13.1668 8.21189 13.309C8.72961 13.5705 9.27689 13.7907 9.85418 13.8443C10.2707 13.8743 10.5982 13.5765 10.9016 13.3326C11.1755 13.1183 11.229 12.7313 11.5085 12.5235C11.5976 12.4519 11.7047 12.4043 11.8179 12.3803ZM12.2765 15.9092C13.0496 15.814 13.8116 16.4865 13.7756 17.266C13.7855 17.5917 13.6789 17.9103 13.475 18.1644C13.2711 18.4185 12.9831 18.5916 12.663 18.6525C12.1097 18.7716 11.4905 18.4977 11.211 18.0036C11.0364 17.706 10.9779 17.3543 11.0468 17.0162C11.1157 16.6781 11.3071 16.3774 11.5843 16.1719C11.7867 16.023 12.0258 15.9321 12.276 15.9092H12.2765Z" fill="white"/>
</g>
<defs>
<clipPath id="clip0_31_9803">
<rect width="24" height="24" fill="white"/>
</clipPath>
</defs>
</svg>

<svg xmlns="http://www.w3.org/2000/svg" width="24" height="24" fill="none" viewBox="0 0 24 24"><g clip-path="url(#a)"><path fill="#2B5EBA" d="M0 0h24v24H0z"/><path fill="#fff" d="M12.133 5.192c.828-.19 1.714.536 1.643 1.393.036.773-.732 1.451-1.5 1.35a1.36 1.36 0 0 1-.952-.512 1.39 1.39 0 0 1-.196-1.416c.166-.416.57-.726 1.011-.815zM6.736 6.62A2.113 2.113 0 0 1 9.29 8.09c.184.476.404.964.75 1.35.273.299.702.334 1.077.358.25.018.488-.054.714-.143.524-.16 1.113.315 1.053.857 0 .452-.429.833-.874.797-.298 0-.572-.196-.715-.452-.268-.398-.613-.833-1.124-.893a2.13 2.13 0 0 0-1.363.22c-.268.126-.506.316-.791.417a2.1 2.1 0 0 1-2.036-.297 2.1 2.1 0 0 1-.78-1.321 2.08 2.08 0 0 1 .287-1.44c.288-.452.733-.78 1.25-.923m8.795 2.5a2.827 2.827 0 0 1 3.29 2.273c.078.553.037 1.13-.202 1.642a2.826 2.826 0 0 1-4.165 1.202 2.826 2.826 0 0 1 1.077-5.13zm-3.713 3.26c.19-.03.393-.035.571.06a.87.87 0 0 1 .476.833c-.041.464-.5.833-.963.756-.46-.101-.97-.215-1.417-.006a2.37 2.37 0 0 0-1.119 1.589 2.094 2.094 0 0 1-3.373 1.219 2.1 2.1 0 0 1-.638-.874 2.11 2.11 0 0 1 .959-2.6 2.1 2.1 0 0 1 1.898-.048c.518.261 1.065.482 1.642.535.417.03.744-.268 1.048-.511.274-.215.327-.602.607-.81a.74.74 0 0 1 .309-.143m.459 3.53c.773-.096 1.535.576 1.499 1.356a1.37 1.37 0 0 1-1.113 1.387 1.38 1.38 0 0 1-1.616-1.637 1.38 1.38 0 0 1 1.23-1.107"/></g><defs><clipPath id="a"><path fill="#fff" d="M0 0h24v24H0z"/></clipPath></defs></svg>
